public/logos/JH.svg

<?xml version="1.0" encoding="UTF-8"?>
<svg xmlns="http://www.w3.org/2000/svg" xmlns:xlink="http://www.w3.org/1999/xlink" width="176pt" height="49.66pt" viewBox="0 0 176 49.66" version="1.1">
<defs>
<clipPath id="clip1">
  <path d="M 0 0 L 58 0 L 58 49.660156 L 0 49.660156 Z M 0 0 "/>
</clipPath>
<clipPath id="clip2">
  <path d="M 4 2 L 58 2 L 58 49.660156 L 4 49.660156 Z M 4 2 "/>
</clipPath>
<clipPath id="clip3">
  <path d="M 11 26 L 54 26 L 54 49.660156 L 11 49.660156 Z M 11 26 "/>
</clipPath>
<clipPath id="clip4">
  <path d="M 18 42 L 52 42 L 52 49.660156 L 18 49.660156 Z M 18 42 "/>
</clipPath>
<clipPath id="clip5">
  <path d="M 55 0 L 91 0 L 91 49.660156 L 55 49.660156 Z M 55 0 "/>
</clipPath>
<clipPath id="clip6">
  <path d="M 91 0 L 136 0 L 136 49.660156 L 91 49.660156 Z M 91 0 "/>
</clipPath>
<clipPath id="clip7">
  <path d="M 134 0 L 176 0 L 176 49.660156 L 134 49.660156 Z M 134 0 "/>
</clipPath>
</defs>
<g id="surface1">
<g clip-path="url(#clip1)" clip-rule="nonzero">
<path style=" stroke:none;fill-rule:nonzero;fill:rgb(90.611267%,91.122437%,6.272888%);fill-opacity:1;" d="M 0 49.660156 C 22.917969 40.277344 36.1875 29.019531 57.367188 0.871094 L 42.890625 0.871094 C 26.664062 33.886719 0 49.660156 0 49.660156 "/>
</g>
<g clip-path="url(#clip2)" clip-rule="nonzero">
<path style=" stroke:none;fill-rule:nonzero;fill:rgb(84.170532%,11.984253%,14.691162%);fill-opacity:1;" d="M 4.261719 49.660156 C 15.011719 46.980469 31.050781 40.8125 54.417969 24.597656 L 57.839844 2.480469 C 32.570312 37.730469 4.261719 49.660156 4.261719 49.660156 "/>
</g>
<g clip-path="url(#clip3)" clip-rule="nonzero">
<path style=" stroke:none;fill-rule:nonzero;fill:rgb(84.170532%,11.984253%,14.691162%);fill-opacity:1;" d="M 11.484375 49.660156 C 21.847656 48.320312 37.003906 44.882812 51.601562 40.679688 L 53.804688 26.351562 C 36.589844 39.207031 11.484375 49.660156 11.484375 49.660156 "/>
</g>
<g clip-path="url(#clip4)" clip-rule="nonzero">
<path style=" stroke:none;fill-rule:nonzero;fill:rgb(84.170532%,11.984253%,14.691162%);fill-opacity:1;" d="M 18.511719 49.660156 L 49.992188 49.660156 L 51.199219 42.554688 C 51.199219 42.554688 25.480469 48.855469 18.511719 49.660156 "/>
</g>
<path style=" stroke:none;fill-rule:nonzero;fill:rgb(100%,100%,100%);fill-opacity:1;" d="M 45.347656 9.015625 L 45.753906 16.367188 L 48.488281 16.773438 L 45.753906 17.179688 L 45.347656 25.265625 L 44.941406 17.179688 L 42.207031 16.773438 L 44.941406 16.367188 L 45.347656 9.015625 "/>
<path style=" stroke:none;fill-rule:nonzero;fill:rgb(100%,100%,100%);fill-opacity:1;" d="M 35.785156 29.878906 L 36.140625 36.289062 L 38.527344 36.640625 L 36.140625 36.996094 L 35.785156 44.046875 L 35.433594 36.996094 L 33.046875 36.640625 L 35.433594 36.289062 L 35.785156 29.878906 "/>
<g clip-path="url(#clip5)" clip-rule="nonzero">
<path style=" stroke:none;fill-rule:nonzero;fill:rgb(84.170532%,11.984253%,14.691162%);fill-opacity:1;" d="M 63.300781 0.359375 L 90.261719 0.359375 L 89.035156 7.515625 L 70.625 7.515625 L 68.445312 21.25 L 85.550781 21.25 L 84.394531 28.335938 L 67.289062 28.335938 L 64.023438 49.082031 L 55.546875 49.082031 L 63.300781 0.359375 "/>
</g>
<g clip-path="url(#clip6)" clip-rule="nonzero">
<path style=" stroke:none;fill-rule:nonzero;fill:rgb(84.170532%,11.984253%,14.691162%);fill-opacity:1;" d="M 100.699219 42.214844 C 102.375 42.429688 104.1875 42.503906 106.070312 42.503906 C 112.667969 42.503906 117.890625 40.410156 121.320312 36.503906 C 125.035156 32.457031 126.8125 26.671875 126.613281 20.3125 C 126.359375 12.214844 121.914062 6.792969 111.695312 6.792969 C 109.738281 6.792969 107.644531 6.9375 106.273438 7.226562 Z M 98.761719 1.082031 C 102.726562 0.359375 107.0625 -0.00390625 111.628906 -0.00390625 C 119.457031 -0.00390625 125.679688 2.023438 129.714844 5.851562 C 133.140625 8.890625 135.53125 13.445312 135.742188 20.167969 C 136.027344 29.347656 132.519531 37.734375 126.519531 42.792969 C 121.011719 47.421875 113.898438 49.371094 103.894531 49.371094 C 98.75 49.371094 93.957031 49.011719 91.191406 48.648438 L 98.761719 1.082031 "/>
</g>
<g clip-path="url(#clip7)" clip-rule="nonzero">
<path style=" stroke:none;fill-rule:nonzero;fill:rgb(84.170532%,11.984253%,14.691162%);fill-opacity:1;" d="M 168.320312 0.359375 L 157.738281 0.359375 L 134.761719 49.082031 L 143.75 49.082031 L 149.984375 35.203125 L 150 35.203125 L 152.753906 28.699219 L 158.027344 16.550781 C 159.3125 13.660156 160.507812 10.191406 161.722656 7.300781 L 161.867188 7.300781 C 162.175781 10.191406 162.582031 13.949219 162.882812 16.550781 L 164.636719 28.699219 L 155.957031 28.699219 L 153.199219 35.203125 L 165.347656 35.203125 L 167.160156 49.082031 L 176 49.082031 L 168.320312 0.359375 "/>
</g>
</g>
</svg>

<svg xmlns="http://www.w3.org/2000/svg" width="176pt" height="66.213" viewBox="0 0 176 49.66"><defs><clipPath id="a"><path d="M0 0h58v49.66H0Zm0 0"/></clipPath><clipPath id="b"><path d="M4 2h54v47.66H4Zm0 0"/></clipPath><clipPath id="c"><path d="M11 26h43v23.66H11Zm0 0"/></clipPath><clipPath id="d"><path d="M18 42h34v7.66H18Zm0 0"/></clipPath><clipPath id="e"><path d="M55 0h36v49.66H55Zm0 0"/></clipPath><clipPath id="f"><path d="M91 0h45v49.66H91Zm0 0"/></clipPath><clipPath id="g"><path d="M134 0h42v49.66h-42Zm0 0"/></clipPath></defs><g clip-path="url(#a)"><path d="M0 49.66C22.918 40.277 36.188 29.02 57.367.871H42.891C26.664 33.887 0 49.661 0 49.661" style="stroke:none;fill-rule:nonzero;fill:#e7e810;fill-opacity:1"/></g><g clip-path="url(#b)"><path d="M4.262 49.66c10.75-2.68 26.789-8.847 50.156-25.062L57.84 2.48C32.57 37.73 4.262 49.66 4.262 49.66" style="stroke:none;fill-rule:nonzero;fill:#d71f25;fill-opacity:1"/></g><g clip-path="url(#c)"><path d="M11.484 49.66c10.364-1.34 25.52-4.777 40.118-8.98l2.203-14.328C36.59 39.207 11.485 49.66 11.485 49.66" style="stroke:none;fill-rule:nonzero;fill:#d71f25;fill-opacity:1"/></g><g clip-path="url(#d)"><path d="M18.512 49.66h31.48l1.207-7.105s-25.719 6.3-32.687 7.105" style="stroke:none;fill-rule:nonzero;fill:#d71f25;fill-opacity:1"/></g><path d="m45.348 9.016.406 7.351 2.734.406-2.734.407-.406 8.086-.407-8.086-2.734-.407 2.734-.406zM35.785 29.879l.356 6.41 2.386.352-2.386.355-.356 7.05-.351-7.05-2.387-.355 2.387-.352z" style="stroke:none;fill-rule:nonzero;fill:#fff;fill-opacity:1"/><g clip-path="url(#e)"><path d="M63.3.36h26.962l-1.227 7.156h-18.41l-2.18 13.734h17.106l-1.156 7.086H67.289l-3.266 20.746h-8.476z" style="stroke:none;fill-rule:nonzero;fill:#d71f25;fill-opacity:1"/></g><g clip-path="url(#f)"><path d="M100.7 42.215c1.675.215 3.487.289 5.37.289 6.598 0 11.82-2.094 15.25-6 3.715-4.047 5.493-9.832 5.293-16.191-.254-8.098-4.699-13.52-14.918-13.52-1.957 0-4.05.144-5.422.434ZM98.761 1.082c3.965-.723 8.3-1.086 12.867-1.086 7.828 0 14.05 2.027 18.086 5.856 3.426 3.039 5.816 7.593 6.027 14.316.285 9.18-3.222 17.566-9.222 22.625-5.508 4.629-12.622 6.578-22.625 6.578-5.145 0-9.938-.36-12.704-.723z" style="stroke:none;fill-rule:nonzero;fill:#d71f25;fill-opacity:1"/></g><g clip-path="url(#g)"><path d="M168.32.36h-10.582l-22.976 48.722h8.988l6.234-13.879H150l2.754-6.504 5.273-12.148c1.286-2.89 2.48-6.36 3.696-9.25h.144c.309 2.89.715 6.648 1.016 9.25l1.754 12.148h-8.68l-2.758 6.504h12.149l1.812 13.879H176z" style="stroke:none;fill-rule:nonzero;fill:#d71f25;fill-opacity:1"/></g></svg>
